svg/emoji_u264a.svg

<?xml version="1.0" encoding="UTF-8"?>
<svg width="128" height="128" enable-background="new 0 0 128 128" xmlns="http://www.w3.org/2000/svg"><linearGradient id="a" x1="64" x2="64" y1="3.6667" y2="124.02" gradientUnits="userSpaceOnUse"><stop stop-color="#FFA726" offset="0"/><stop stop-color="#FB9415" offset=".4963"/><stop stop-color="#F57C00" offset="1"/></linearGradient><circle cx="64" cy="64" r="60" fill="url(#a)"/><g opacity=".2"><path d="M64,7c31.43,0,57,25.57,57,57s-25.57,57-57,57S7,95.43,7,64S32.57,7,64,7 M64,4 C30.86,4,4,30.86,4,64s26.86,60,60,60s60-26.86,60-60S97.14,4,64,4L64,4z" fill="#424242"/></g><g opacity=".2"><path d="m93.43 30c0.07 0 0.14 0 0.22 0.01 0.77 0.04 1.49 0.42 2.03 0.98 6.09 6.45-5.75 9.96-10.13 11-0.92 0.21-1.55 1.01-1.55 1.94v40.14c0 0.93 0.64 1.73 1.54 1.95 3.79 0.91 13.15 3.7 11.73 8.84-0.47 1.7-2.11 3.14-3.87 3.14h-0.09c-0.9-0.03-1.73-0.35-2.39-0.88-2.02-1.63-4.37-2.79-6.91-3.3-4.88-0.97-9.93-1.82-20.01-1.82s-15.12 0.85-20 1.82c-2.55 0.51-4.9 1.67-6.92 3.3-0.66 0.53-1.48 0.85-2.39 0.88h-0.09c-1.76 0-3.4-1.45-3.87-3.15-1.42-5.14 7.94-7.93 11.73-8.84 0.9-0.21 1.54-1.01 1.54-1.94v-40.14c0-0.93-0.63-1.73-1.53-1.94-4.38-1.04-16.22-4.54-10.14-10.99 0.53-0.56 1.26-0.95 2.03-0.99 0.07-0.01 0.14-0.01 0.21-0.01 0.93 0 1.79 0.32 2.47 0.85 2.09 1.64 4.48 2.84 7.08 3.35 4.85 0.96 9.89 1.8 19.88 1.8 9.98 0 15.03-0.84 19.87-1.79 2.61-0.52 5-1.72 7.09-3.36 0.68-0.53 1.54-0.85 2.47-0.85m-39.43 54.35c0.05 0 0.11 0 0.16-0.01 2.91-0.22 6.1-0.34 9.84-0.34s6.93 0.12 9.84 0.35c0.05 0 0.11 0.01 0.16 0.01 1.1 0 2-0.88 2-2v-36.71c0-1.12-0.91-2-2-2-0.05 0-0.11 0-0.16 0.01-2.91 0.22-6.1 0.34-9.84 0.34s-6.93-0.12-9.84-0.35c-0.05 0-0.11-0.01-0.16-0.01-1.1 0-2 0.88-2 2v36.71c0 1.12 0.91 2 2 2m39.43-57.35c-1.56 0-3.09 0.53-4.31 1.49-1.84 1.44-3.8 2.38-5.82 2.78-4.82 0.94-9.59 1.73-19.3 1.73-9.72 0-14.48-0.79-19.29-1.74-2.03-0.4-3.99-1.33-5.81-2.77-1.23-0.96-2.76-1.49-4.33-1.49-0.12 0-0.25 0-0.37 0.01-1.52 0.08-2.96 0.76-4.06 1.93-2.79 2.96-2.76 5.62-2.25 7.34 1.11 3.69 5.52 6.53 13.11 8.44v38.57c-4.62 1.18-10.24 3.33-12.44 7.05-0.97 1.65-1.22 3.49-0.72 5.31 0.85 3.1 3.7 5.35 6.76 5.35h0.18c1.54-0.04 2.98-0.58 4.18-1.54 1.73-1.39 3.62-2.3 5.62-2.69 4.87-0.97 9.68-1.77 19.42-1.77s14.56 0.8 19.42 1.76c1.98 0.39 3.92 1.32 5.62 2.69 1.2 0.97 2.65 1.5 4.19 1.54h0.18c3.07 0 5.91-2.25 6.76-5.35 0.5-1.82 0.25-3.66-0.72-5.31-2.2-3.72-7.82-5.87-12.44-7.05v-38.56c7.59-1.91 12-4.75 13.11-8.45 0.51-1.71 0.54-4.38-2.26-7.34-1.09-1.16-2.53-1.84-4.05-1.92-0.13-0.01-0.26-0.01-0.38-0.01zm-29.43 20c3.28 0 6.24-0.09 9-0.28v34.55c-2.76-0.18-5.71-0.27-9-0.27-3.28 0-6.24 0.09-9 0.28v-34.56c2.76 0.19 5.71 0.28 9 0.28z" fill="#424242"/></g><path d="m84 84.07v-40.14c0-0.93 0.63-1.73 1.53-1.94 4.38-1.04 16.22-4.54 10.13-11-0.53-0.56-1.25-0.94-2.03-0.98-1.01-0.05-1.95 0.27-2.68 0.84-2.09 1.64-4.49 2.84-7.09 3.36-4.83 0.95-9.88 1.79-19.86 1.79-9.99 0-15.03-0.84-19.87-1.79-2.6-0.51-5-1.71-7.08-3.35-0.73-0.58-1.67-0.9-2.69-0.85-0.77 0.04-1.5 0.42-2.03 0.99-6.08 6.45 5.76 9.95 10.14 10.99 0.9 0.21 1.53 1.01 1.53 1.94v40.14c0 0.93-0.64 1.73-1.54 1.95-3.79 0.91-13.15 3.7-11.73 8.84 0.48 1.73 2.17 3.2 3.97 3.15 0.9-0.03 1.73-0.35 2.39-0.88 2.02-1.63 4.37-2.79 6.92-3.3 4.87-0.98 9.91-1.83 19.99-1.83s15.13 0.85 20 1.82c2.54 0.5 4.89 1.67 6.91 3.3 0.66 0.53 1.49 0.86 2.39 0.88 1.8 0.05 3.49-1.41 3.96-3.15 1.42-5.14-7.94-7.93-11.73-8.84-0.89-0.21-1.53-1.01-1.53-1.94zm-32-1.72v-36.7c0-1.17 1-2.08 2.16-1.99 2.91 0.22 6.1 0.34 9.84 0.34s6.93-0.12 9.84-0.35c1.16-0.09 2.16 0.83 2.16 2v36.71c0 1.17-1 2.08-2.16 1.99-2.91-0.23-6.1-0.35-9.84-0.35s-6.93 0.12-9.84 0.35c-1.16 0.09-2.16-0.83-2.16-2z" fill="#FAFAFA"/></svg>

<svg width="128" height="128" style="enable-background:new 0 0 128 128;" xmlns="http://www.w3.org/2000/svg" xmlns:xlink="http://www.w3.org/1999/xlink">
  <g>
    <linearGradient id="SVGID_1_" gradientUnits="userSpaceOnUse" x1="64" x2="64" y1="3.6667" y2="124.0164">
      <stop offset="0" style="stop-color:#FFA726"/>
      <stop offset="0.4963" style="stop-color:#FB9415"/>
      <stop offset="1" style="stop-color:#F57C00"/>
    </linearGradient>
    <circle cx="64" cy="64" r="60" style="fill:url(#SVGID_1_);"/>
    <g style="opacity:0.2;">
      <path d="M64,7c31.43,0,57,25.57,57,57s-25.57,57-57,57S7,95.43,7,64S32.57,7,64,7 M64,4 C30.86,4,4,30.86,4,64s26.86,60,60,60s60-26.86,60-60S97.14,4,64,4L64,4z" style="fill:#424242;"/>
    </g>
    <g style="opacity:0.2;">
      <path d="M93.43,30c0.07,0,0.14,0,0.22,0.01c0.77,0.04,1.49,0.42,2.03,0.98c6.09,6.45-5.75,9.96-10.13,11 C84.63,42.2,84,43,84,43.93v40.14c0,0.93,0.64,1.73,1.54,1.95c3.79,0.91,13.15,3.7,11.73,8.84C96.8,96.56,95.16,98,93.4,98 c-0.03,0-0.06,0-0.09,0c-0.9-0.03-1.73-0.35-2.39-0.88c-2.02-1.63-4.37-2.79-6.91-3.3C79.13,92.85,74.08,92,64,92 c-10.08,0-15.12,0.85-20,1.82c-2.55,0.51-4.9,1.67-6.92,3.3c-0.66,0.53-1.48,0.85-2.39,0.88c-0.03,0-0.06,0-0.09,0 c-1.76,0-3.4-1.45-3.87-3.15c-1.42-5.14,7.94-7.93,11.73-8.84C43.36,85.8,44,85,44,84.07V43.93c0-0.93-0.63-1.73-1.53-1.94 c-4.38-1.04-16.22-4.54-10.14-10.99c0.53-0.56,1.26-0.95,2.03-0.99C34.43,30,34.5,30,34.57,30c0.93,0,1.79,0.32,2.47,0.85 c2.09,1.64,4.48,2.84,7.08,3.35C48.97,35.16,54.01,36,64,36c9.98,0,15.03-0.84,19.87-1.79c2.61-0.52,5-1.72,7.09-3.36 C91.64,30.32,92.5,30,93.43,30 M54,84.35c0.05,0,0.11,0,0.16-0.01C57.07,84.12,60.26,84,64,84c3.74,0,6.93,0.12,9.84,0.35 c0.05,0,0.11,0.01,0.16,0.01c1.1,0,2-0.88,2-2V45.65c0-1.12-0.91-2-2-2c-0.05,0-0.11,0-0.16,0.01C70.93,43.88,67.74,44,64,44 c-3.74,0-6.93-0.12-9.84-0.35c-0.05,0-0.11-0.01-0.16-0.01c-1.1,0-2,0.88-2,2v36.71C52,83.47,52.91,84.35,54,84.35 M93.43,27 c-1.56,0-3.09,0.53-4.31,1.49c-1.84,1.44-3.8,2.38-5.82,2.78C78.48,32.21,73.71,33,64,33c-9.72,0-14.48-0.79-19.29-1.74 c-2.03-0.4-3.99-1.33-5.81-2.77C37.67,27.53,36.14,27,34.57,27c-0.12,0-0.25,0-0.37,0.01c-1.52,0.08-2.96,0.76-4.06,1.93 c-2.79,2.96-2.76,5.62-2.25,7.34C29,39.97,33.41,42.81,41,44.72v38.57c-4.62,1.18-10.24,3.33-12.44,7.05 c-0.97,1.65-1.22,3.49-0.72,5.31c0.85,3.1,3.7,5.35,6.76,5.35c0.06,0,0.12,0,0.18,0c1.54-0.04,2.98-0.58,4.18-1.54 c1.73-1.39,3.62-2.3,5.62-2.69C49.45,95.8,54.26,95,64,95c9.74,0,14.56,0.8,19.42,1.76c1.98,0.39,3.92,1.32,5.62,2.69 c1.2,0.97,2.65,1.5,4.19,1.54c0.06,0,0.12,0,0.18,0c3.07,0,5.91-2.25,6.76-5.35c0.5-1.82,0.25-3.66-0.72-5.31 c-2.2-3.72-7.82-5.87-12.44-7.05V44.72c7.59-1.91,12-4.75,13.11-8.45c0.51-1.71,0.54-4.38-2.26-7.34 c-1.09-1.16-2.53-1.84-4.05-1.92C93.68,27,93.55,27,93.43,27L93.43,27z M64,47c3.28,0,6.24-0.09,9-0.28v34.55 C70.24,81.09,67.29,81,64,81c-3.28,0-6.24,0.09-9,0.28V46.72C57.76,46.91,60.71,47,64,47L64,47z" style="fill:#424242;"/>
    </g>
    <path d="M84,84.07V43.93c0-0.93,0.63-1.73,1.53-1.94c4.38-1.04,16.22-4.54,10.13-11 c-0.53-0.56-1.25-0.94-2.03-0.98c-1.01-0.05-1.95,0.27-2.68,0.84c-2.09,1.64-4.49,2.84-7.09,3.36C79.03,35.16,73.98,36,64,36 c-9.99,0-15.03-0.84-19.87-1.79c-2.6-0.51-5-1.71-7.08-3.35c-0.73-0.58-1.67-0.9-2.69-0.85c-0.77,0.04-1.5,0.42-2.03,0.99 c-6.08,6.45,5.76,9.95,10.14,10.99C43.37,42.2,44,43,44,43.93v40.14c0,0.93-0.64,1.73-1.54,1.95c-3.79,0.91-13.15,3.7-11.73,8.84 c0.48,1.73,2.17,3.2,3.97,3.15c0.9-0.03,1.73-0.35,2.39-0.88c2.02-1.63,4.37-2.79,6.92-3.3C48.88,92.85,53.92,92,64,92 c10.08,0,15.13,0.85,20,1.82c2.54,0.5,4.89,1.67,6.91,3.3c0.66,0.53,1.49,0.86,2.39,0.88c1.8,0.05,3.49-1.41,3.96-3.15 c1.42-5.14-7.94-7.93-11.73-8.84C84.64,85.8,84,85,84,84.07z M52,82.35V45.65c0-1.17,1-2.08,2.16-1.99C57.07,43.88,60.26,44,64,44 c3.74,0,6.93-0.12,9.84-0.35C75,43.56,76,44.48,76,45.65v36.71c0,1.17-1,2.08-2.16,1.99C70.93,84.12,67.74,84,64,84 c-3.74,0-6.93,0.12-9.84,0.35C53,84.44,52,83.52,52,82.35z" style="fill:#FAFAFA;"/>
  </g>
</svg>
